X: 57
T:Papillon
M:4/4
L:1/8
C:Ian Luff
R:Schottische
Z:Steve Mansfield
K:G
GABd efed | BABd e2B2 | GABd efed | ged2 A4 | GABd efed |
BABd e2B2 | GABd efed | BAB2 E4 :: edB2 F4 | dBAD E2E2 | DEGA Bded |
BABd e2d2 | edB2 F4 | dBAD E2E2 | DEGA Bded | BAE2 G4 :|

